img/book/skobka_r.svg

<svg xmlns="http://www.w3.org/2000/svg" width="56" height="219" viewBox="0 0 56 219"><path d="M0 217c15.949 0 31.797-12.438 31.797-28.346v-44.121c0-33.433 24.065-34.554 24.065-34.554s-24.065-.821-24.065-35.514v-43.54C31.797 15.018 15.949 2 0 2" fill="#FFF"/><path d="M0 217c18.143 0 32.09-12.092 32.09-28v-44c0-33.433 23.772-35.021 23.772-35.021S32.09 108.692 32.09 74V31C32.09 15.094 19.208 2 0 2" fill="none" stroke="#FF2F4F" stroke-width="4" stroke-linejoin="bevel"/></svg>

<svg version="1.1" xmlns="http://www.w3.org/2000/svg" xmlns:xlink="http://www.w3.org/1999/xlink" width="56" height="219" viewBox="0 0 56 219"><g id="skobka_r"><path id="text-BG-copy-2" d="M0.000,217.000 C15.949,217.000 31.797,204.562 31.797,188.654 C31.797,188.654 31.797,211.303 31.797,144.533 C31.797,111.100 55.862,109.979 55.862,109.979 C55.862,109.979 31.797,109.158 31.797,74.465 C31.797,8.359 31.797,30.925 31.797,30.925 C31.797,15.018 15.949,2.000 0.000,2.000 " fill="#FFFFFF" /><g id="Skobka-left-copy" ><path id="Skobka-left-copy-stroke" d="M-0.000,217.000 C18.143,217.000 32.090,204.908 32.090,189.000 C32.090,189.000 32.090,179.771 32.090,145.000 C32.090,111.567 55.862,109.979 55.862,109.979 C55.862,109.979 32.090,108.692 32.090,74.000 C32.090,36.456 32.090,31.000 32.090,31.000 C32.090,15.094 19.208,2.000 -0.000,2.000 " fill="none" stroke="#FF2F4F" stroke-width="4" stroke-linejoin="bevel" /></g></g></svg>
